app/img/services/2.svg

<?xml version="1.0" encoding="UTF-8" standalone="no"?>
<svg
   xmlns:dc="http://purl.org/dc/elements/1.1/"
   xmlns:cc="http://creativecommons.org/ns#"
   xmlns:rdf="http://www.w3.org/1999/02/22-rdf-syntax-ns#"
   xmlns:svg="http://www.w3.org/2000/svg"
   xmlns="http://www.w3.org/2000/svg"
   viewBox="0 0 280.93314 279.12625"
   height="279.12625"
   width="280.93314"
   version="1.1"
   id="svg2">
  <metadata
     id="metadata8">
    <rdf:RDF>
      <cc:Work
         rdf:about="">
        <dc:format>image/svg+xml</dc:format>
        <dc:type
           rdf:resource="http://purl.org/dc/dcmitype/StillImage" />
        <dc:title></dc:title>
      </cc:Work>
    </rdf:RDF>
  </metadata>
  <defs
     id="defs6" />
  <path
     id="path4138"
     d="M 32,264.56312 32,250 l 19.12061,0 19.12061,0 -0.72559,13.75 c -0.39907,7.5625 -0.93971,13.975 -1.20141,14.25 -0.26171,0.275 -8.53946,0.64091 -18.39502,0.81312 L 32,279.12625 32,264.56312 Z m 178,-0.0631 0,-14.5 18.5,0 18.5,0 0,14.5 0,14.5 -18.5,0 -18.5,0 0,-14.5 z M 7.78592,244.28721 C 4.43344,243.77691 0,238.70136 0,235.37361 0,231.37408 2.68755,227.30457 6.11884,226.10842 8.38302,225.31912 46.83641,225 139.68134,225 c 139.70875,0 135.56494,-0.14537 138.23817,4.8496 1.92327,3.59366 1.27746,8.76286 -1.5084,12.07367 L 273.82221,245 142.16111,244.85017 C 69.7475,244.76777 9.27867,244.51443 7.78592,244.28721 Z M 20.02141,218.9058 C 20.03321,218.13261 27.85848,191.85 37.41096,160.5 l 17.36816,-57 84.78172,0 84.78174,0 17.49801,57.24736 c 9.62391,31.48605 17.23095,57.51443 16.90454,57.84084 -0.32641,0.32641 -54.17759,0.84771 -119.6693,1.15844 -101.90639,0.48351 -119.07274,0.36227 -119.05442,-0.84084 z m 169.59784,-14.19172 c 0.77464,-0.77463 -0.27034,-5.06206 -11.29755,-46.35282 l -8.58305,-32.13874 -29.412,-0.73525 c -16.17659,-0.4044 -29.69827,-0.44898 -30.04817,-0.0991 -0.70955,0.70956 -21.27294,76.41057 -21.27633,78.32561 -0.001,0.84213 2.98327,1.33378 9.74785,1.60567 15.2159,0.61159 90.15152,0.11236 90.86925,-0.60538 z m 50.41575,-76.5682 c -1.44236,-6.01241 -2.87974,-3.02392 17.7959,-36.999927 C 263.9739,81.051227 269,72.474609 269,72.086802 269,71.698994 257.52801,66.958048 243.50669,61.551367 229.48536,56.144685 217.55873,51.173226 217.00305,50.503679 215.84191,49.104588 216.79019,43 218.16867,43 c 2.34979,0 59.52945,22.315826 62.12062,24.244168 1.52538,1.135179 0.81486,2.69695 -7.39548,16.255832 -14.47808,23.90967 -27.64556,44.97186 -29.70552,47.51579 l -1.90148,2.34824 -1.25181,-5.21815 z M 181,60.961546 c -15.125,-5.958016 -27.94048,-11.008559 -28.47884,-11.22343 -1.34791,-0.537981 0.8016,-3.670447 15.83979,-23.083138 l 13.04912,-16.8450212 3.54497,0.5796962 c 3.93653,0.643728 27.02858,9.285283 28.44324,10.644085 0.88688,0.851876 -1.93973,46.607718 -3.05951,49.525829 -0.30401,0.792238 -0.8421,1.394151 -1.19576,1.337584 C 208.78936,71.840581 196.125,66.919562 181,60.961546 Z M 199,10.711249 C 193.68032,8.7015079 190.5,6.9536701 190.5,6.0398333 190.5,3.9356549 196.79629,0 200.16257,0 c 4.13713,0 9.74317,5.4710352 10.50294,10.25 0.7567,4.759736 -0.18871,4.797117 -11.66551,0.461249 z"
     style="fill:#545454" />
</svg>

<svg xmlns="http://www.w3.org/2000/svg" viewBox="0 0 280.93314 279.12625" height="279.126" width="280.933"><path d="M32 264.563V250h38.24l-.724 13.75c-.4 7.563-.94 13.975-1.202 14.25-.26.275-8.54.64-18.395.813l-17.92.313v-14.563zm178-.063V250h37v29h-37v-14.5zM7.786 244.287C4.433 243.777 0 238.7 0 235.374c0-4 2.688-8.07 6.12-9.266 2.263-.79 40.716-1.108 133.56-1.108 139.71 0 135.566-.145 138.24 4.85 1.923 3.593 1.277 8.762-1.51 12.073L273.823 245l-131.66-.15c-72.415-.082-132.883-.336-134.376-.563zm12.235-25.38c.013-.774 7.838-27.057 17.39-58.407l17.37-57h169.563l17.498 57.247c9.624 31.486 17.232 57.515 16.905 57.84-.326.328-54.177.85-119.67 1.16-101.906.483-119.072.362-119.054-.84zm169.6-14.193c.774-.775-.27-5.062-11.298-46.353l-8.583-32.137-29.413-.736c-16.177-.404-29.7-.45-30.05-.1-.708.71-21.27 76.412-21.275 78.327 0 .842 2.983 1.334 9.748 1.605 15.216.61 90.152.112 90.87-.606zm50.415-76.568c-1.442-6.013-2.88-3.024 17.796-37C263.975 81.05 269 72.476 269 72.086c0-.387-11.472-5.128-25.493-10.535-14.022-5.405-25.948-10.377-26.504-11.046-1.16-1.4-.213-7.504 1.166-7.504 2.348 0 59.528 22.316 62.12 24.244 1.525 1.135.814 2.697-7.396 16.256-14.478 23.91-27.646 44.972-29.706 47.516l-1.9 2.348-1.253-5.218zM181 60.962c-15.125-5.958-27.94-11.01-28.48-11.224-1.347-.538.803-3.67 15.84-23.083L181.41 9.81l3.545.58c3.937.643 27.03 9.285 28.443 10.644.887.852-1.94 46.607-3.06 49.526-.303.792-.84 1.394-1.195 1.337-.354-.056-13.018-4.977-28.143-10.935zm18-50.25c-5.32-2.01-8.5-3.758-8.5-4.672 0-2.104 6.296-6.04 9.663-6.04 4.137 0 9.743 5.47 10.503 10.25.756 4.76-.19 4.797-11.666.46z" fill="#545454"/></svg>
